X: 1696
T: the Friendly Visit   #2
R: hornpipe, reel
%S: s:3 b:16(4+5+5)
B: O'Neill's 1850 #1696
O: Dollard
M: 4/4
L: 1/8
K: G
B>A |: (3GFG D>G B>GB>d | (3cBc A>B c>de>f |[1,3 g2d>f e>cA>G | F>GA>B c>AF>D :|
[2,4 g>dB>G F>Ad>c | B2G2 G2 :: (3(GBd) | g2d>B G>Bd>g | e2A>F D>FA>g | f2 e>d c>de>g |
| (3fgf (3efe d>cB>A || (3GFG D>G B>GB>d | (3cBc A>B c>de>f | g>dB>G F>Ad>c | B2G2 G2 :|
